dist/images/icons/facebook.svg

<svg width="10" height="21" viewBox="0 0 10 21" fill="none" xmlns="http://www.w3.org/2000/svg">
<path d="M2.54678 20.5264V10.8949H0V7.42704H2.54678V4.46507C2.54678 2.13753 4.05118 8.39233e-05 7.51762 8.39233e-05C8.92113 8.39233e-05 9.95896 0.134634 9.95896 0.134634L9.87718 3.37299C9.87718 3.37299 8.81876 3.36268 7.66377 3.36268C6.41371 3.36268 6.21344 3.93876 6.21344 4.89489V7.42704H9.97655L9.81281 10.8949H6.21344V20.5264H2.54678Z" fill="#31352B"/>
</svg>

<svg width="10" height="21" fill="none" xmlns="http://www.w3.org/2000/svg"><path d="M2.547 20.526v-9.631H0V7.427h2.547V4.465C2.547 2.138 4.05 0 7.517 0 8.922 0 9.96.135 9.96.135l-.082 3.238s-1.058-.01-2.213-.01c-1.25 0-1.45.576-1.45 1.532v2.532h3.763l-.164 3.468h-3.6v9.631H2.547z" fill="#31352B"/></svg>
